X:1
T:Allelœia.
T:Allelœia.
T:Claudio Macchi
C:Claudio Macchi
%%score [ 1 2 3 4 ]
L:1/8
Q:1/4=120
M:4/4
K:F
V:1 treble nm="Soprano"
V:2 treble nm="Alto"
V:3 treble-8 nm="Tenor"
V:4 bass nm="Bass"
V:1
 z8 | z8 | z8 | d3 d (g4 | d6 ^c2) | d4 z4 | f3 f f4 x | B4 B3 B | g4 g4 | f3 f e4- | e4 d4 | %11
w: |||Al- le- lú-||ia.|Al- le- lú-|ia. Al- le-|lú- ia.|Al- le- lú-|* ia.|
 d2 d2 (dcBA) | B6 G2 | d8- | d2 (c2 B3 A | G6 B2) | A8 | z8 | z8 | z8 | z8 | z8 | z8 | z8 | z8 | %25
w: Al- le- lú- * * *|ia. Al-|le-|* lú- * *||ia.|||||||||
 z8 | A2 (=B^c) (d=c_BA | G2 E2) (F3 E/D/) | (E A2 B) A2 G2 | F d2 e (d3 e/f/) | (g2 f2) e4 | f8 | %32
w: |Al- le- * lú- * * *|* * ia. * *|Al- * * le- lú-|ia. Al- le- lú- * *|ia. * Al-|le-|
 e8 | !fermata!d8 |] %34
w: lú-|ia.|
V:2
 z8 | z8 | A3 A (d4 | F4) B4 | F4 E2 G2- | G2 F2 z4 | A3 A A4 x | G4 G3 G | B4 B4 | A3 A A4 | A8 | %11
w: ||Al- le- lú-|* ia.|Al- le- lú-|* ia.|Al- le- lú-|ia. Al- le-|lú- ia.|Al- le- lú-|ia.|
 z8 | d2 d2 (dcBA) | B6 G2 | (F6 D2) | (E3 F E3 D | ^C4) E4 | z8 | z8 | z8 | z8 | z8 | z8 | %23
w: |Al- le- lú- * * *|ia. Al-|le- *|lú- * * *|* ia.|||||||
 D2 (EF) (GFED | ^C2 A,2) (B,3 A,/G,/) | A,4 (A,3 =B,) | ^C4 D4 | A,A,^CC D2 D2 | ^C8 | D B6 B | %30
w: Al- le- * lú- * * *|* * ia. _ _|Al- le- *|lú- ia.|Al- le- lú- ia. Al- le-|lú-|ia. Al- le-|
 B8- | B3 c/B/ A4- | A6 G2- | G3 ^F/E/ !fermata!F4 |] %34
w: lú-|||* * * ia.|
V:3
 z8 | F3 F (B4 | F4) B4 | B4 d4 | A8 | A4 z4 | d3 d d4 x | d4 d3 d | _e4 (=e2 ^c2) | d3 d ^c4 | %10
w: |Al- le- lú-|* ia.|Al- le-|lú-|ia.|Al- le- lú-|ia. Al- le-|lú- ia. _|Al- le- lú-|
 d8 | z8 | z8 | d2 d2 (dcBA) | B6 G2 | G8 | E4 A4 | z8 | z8 | z8 | A2 (=B^c) (d=c_BA | %21
w: ia.|||Al- le- lú- * * *|ia. Al-|le-|lú- ia.||||Al- le- * lú- * * *|
 G2 E2) (F3 E/D/) | E4 (A2 G2) | F4 D4 | E2 E2 F2 F2 | E4 E4 | E4 F4 | A4 B4 | A8 | d f2 f (g3 f) | %30
w: * * ia. * *|Al- le- *|lú- ia.|Al- le- lú- ia.|Al- le-|lú- ia.|Al- le-|lú-|ia. Al- le- lú- *|
 (e3 d) ^c4 | (d8- | d3 ^c/=B/) c4 | !fermata!A8 |] %34
w: ia. * Al-|le-|* * * lú-|ia.|
V:4
 D,3 D, G,4 | D,8- | D,4 (D,3 C, | B,,4) G,,4 | A,,8 | D,4 z4 | D3 D2 (D2 C2) | B,4 B,3 B, | %8
w: Al- le- lú-|ia.|_ Al- *|* le-|lú-|ia.|Al- le- lú- *|ia. Al- le-|
 _E,4 G,4 | A,3 A, G,4 | F,8 | z8 | z8 | z8 | D,2 D,2 (D,C,B,,A,, | B,,6 G,,2 | A,,4) ^C,4 | %17
w: lú- ia.|Al- le- lú-|ia.||||Al- le- lú- * * *||* ia.|
 D,2 (E,F,) (G,F,E,D, | ^C,2 A,,2) (B,,3 A,,/G,,/) | A,,4 (A,,3 =B,,) | ^C,4 D,4 | %21
w: Al- le- * lú- * * *|* * ia. _ _|Al- le- *|lú- ia.|
 A,,A,,^C,C, (D,2 C,2) | ^C,8 | (D,2 =C,2) B,,4 | A,,2 ^C,2 D,2 D,2 | ^C,4 C,4 | A,,4 D,4 | %27
w: Al- le- lú- ia. Al- *|le-|lú- * ia.|Al- le- lú- ia.|Al- le-|lú- ia.|
 (^C,2 A,,2) (B,,2 G,,2) | A,,8 | B,, (B,,2 A,,) G,,4 | (G,,7 ^F,,/G,,/ | A,,8- | A,,8) | %33
w: Al- * le- *|lú-|ia. Al- * le-|lú- * *|||
 !fermata!D,8 |] %34
w: ia.|

